Numix-Light/16/status/indicator-keyboard-Lv-7.svg

<?xml version="1.0" encoding="UTF-8" standalone="no"?>
<svg
   xmlns:dc="http://purl.org/dc/elements/1.1/"
   xmlns:cc="http://creativecommons.org/ns#"
   xmlns:rdf="http://www.w3.org/1999/02/22-rdf-syntax-ns#"
   xmlns:svg="http://www.w3.org/2000/svg"
   xmlns="http://www.w3.org/2000/svg"
   xmlns:sodipodi="http://sodipodi.sourceforge.net/DTD/sodipodi-0.dtd"
   xmlns:inkscape="http://www.inkscape.org/namespaces/inkscape"
   viewBox="0 0 16 16"
   id="svg2"
   version="1.1"
   inkscape:version="0.91 r13725"
   sodipodi:docname="indicator-keyboard-Lv-7.svg">
  <metadata
     id="metadata14">
    <rdf:RDF>
      <cc:Work
         rdf:about="">
        <dc:format>image/svg+xml</dc:format>
        <dc:type
           rdf:resource="http://purl.org/dc/dcmitype/StillImage" />
      </cc:Work>
    </rdf:RDF>
  </metadata>
  <defs
     id="defs12" />
  <sodipodi:namedview
     pagecolor="#ffffff"
     bordercolor="#666666"
     borderopacity="1"
     objecttolerance="10"
     gridtolerance="10"
     guidetolerance="10"
     inkscape:pageopacity="0"
     inkscape:pageshadow="2"
     inkscape:window-width="640"
     inkscape:window-height="480"
     id="namedview10"
     showgrid="false"
     inkscape:zoom="14.75"
     inkscape:cx="8"
     inkscape:cy="8"
     inkscape:window-x="65"
     inkscape:window-y="24"
     inkscape:window-maximized="0"
     inkscape:current-layer="svg2" />
  <path
     style="fill:#353535;fill-opacity:1"
     d="M 1.5996094 0 C 0.71320937 2.9605947e-16 0 0.71320937 0 1.5996094 L 0 14.400391 C 2.9605947e-16 15.286791 0.71320937 16 1.5996094 16 L 14.400391 16 C 15.286791 16 16 15.286791 16 14.400391 L 16 1.5996094 C 16 0.71320937 15.286791 0 14.400391 0 L 1.5996094 0 z M 2.6835938 4.859375 L 3.2949219 4.859375 L 3.2949219 10.564453 L 6.2285156 10.564453 L 6.2285156 11.095703 L 2.6835938 11.095703 L 2.6835938 4.859375 z M 6.3066406 6.4433594 L 6.9277344 6.4433594 C 6.9997344 6.7613594 7.0874531 7.10275 7.1894531 7.46875 C 7.2974531 7.82875 7.41125 8.1888281 7.53125 8.5488281 C 7.65725 8.9028281 7.7859687 9.2479844 7.9179688 9.5839844 C 8.0499688 9.9139846 8.1786875 10.208797 8.3046875 10.466797 C 8.4306875 10.208797 8.5594062 9.9139846 8.6914062 9.5839844 C 8.8234062 9.2479844 8.9503125 8.9028281 9.0703125 8.5488281 C 9.1963125 8.1888281 9.3101094 7.82875 9.4121094 7.46875 C 9.5201094 7.10275 9.6096406 6.7613594 9.6816406 6.4433594 L 10.265625 6.4433594 C 10.157625 6.8693594 10.03825 7.289125 9.90625 7.703125 C 9.77425 8.117125 9.634375 8.5219687 9.484375 8.9179688 C 9.340375 9.3139687 9.1873906 9.6945467 9.0253906 10.060547 C 8.8693906 10.426547 8.7164062 10.771703 8.5664062 11.095703 L 8.0078125 11.095703 C 7.8518125 10.771703 7.6950625 10.426547 7.5390625 10.060547 C 7.3830625 9.6945467 7.2300781 9.3139687 7.0800781 8.9179688 C 6.9360781 8.5219688 6.7980156 8.117125 6.6660156 7.703125 C 6.5340156 7.289125 6.4146406 6.8693594 6.3066406 6.4433594 z M 10.853516 8.8417969 L 13.316406 8.8417969 L 13.316406 9.1816406 C 13.183806 9.3415406 13.038806 9.5551188 12.878906 9.8242188 C 12.722906 10.089419 12.573994 10.391163 12.433594 10.726562 C 12.293194 11.058062 12.169753 11.410756 12.064453 11.785156 C 11.963053 12.159556 11.902306 12.529884 11.878906 12.896484 L 11.474609 12.896484 C 11.498009 12.572784 11.556791 12.229888 11.650391 11.867188 C 11.747891 11.504488 11.865453 11.1518 12.001953 10.8125 C 12.142353 10.4732 12.291272 10.161653 12.451172 9.8769531 C 12.614972 9.5922532 12.773681 9.3649594 12.925781 9.1933594 L 10.853516 9.1933594 L 10.853516 8.8417969 z "
     id="path4" />
</svg>

<svg xmlns="http://www.w3.org/2000/svg" viewBox="0 0 16 16">
 <path d="m 1.6 0 c -0.886 0 -1.6 0.713 -1.6 1.6 l 0 12.801 c 0 0.886 0.713 1.6 1.6 1.6 l 12.801 0 c 0.886 0 1.6 -0.713 1.6 -1.6 l 0 -12.801 c 0 -0.886 -0.713 -1.6 -1.6 -1.6 l -12.801 0 z m 1.084 4.859 l 0.611 0 l 0 5.705 l 2.934 0 l 0 0.531 l -3.545 0 l 0 -6.236 z m 3.623 1.584 l 0.621 0 c 0.072 0.318 0.16 0.659 0.262 1.025 c 0.108 0.36 0.222 0.72 0.342 1.08 c 0.126 0.354 0.255 0.699 0.387 1.035 c 0.132 0.33 0.261 0.625 0.387 0.883 c 0.126 -0.258 0.255 -0.553 0.387 -0.883 c 0.132 -0.336 0.259 -0.681 0.379 -1.035 c 0.126 -0.36 0.24 -0.72 0.342 -1.08 c 0.108 -0.366 0.198 -0.707 0.27 -1.025 l 0.584 0 c -0.108 0.426 -0.227 0.846 -0.359 1.26 c -0.132 0.414 -0.272 0.819 -0.422 1.215 c -0.144 0.396 -0.297 0.777 -0.459 1.143 c -0.156 0.366 -0.309 0.711 -0.459 1.035 l -0.559 0 c -0.156 -0.324 -0.313 -0.669 -0.469 -1.035 c -0.156 -0.366 -0.309 -0.747 -0.459 -1.143 c -0.144 -0.396 -0.282 -0.801 -0.414 -1.215 c -0.132 -0.414 -0.251 -0.834 -0.359 -1.26 z m 4.547 2.398 l 2.463 0 l 0 0.34 c -0.133 0.16 -0.278 0.373 -0.438 0.643 c -0.156 0.265 -0.305 0.567 -0.445 0.902 c -0.14 0.332 -0.264 0.684 -0.369 1.059 c -0.101 0.374 -0.162 0.745 -0.186 1.111 l -0.404 0 c 0.023 -0.324 0.082 -0.667 0.176 -1.029 c 0.097 -0.363 0.215 -0.715 0.352 -1.055 c 0.14 -0.339 0.289 -0.651 0.449 -0.936 c 0.164 -0.285 0.323 -0.512 0.475 -0.684 l -2.072 0 l 0 -0.352 z" style="fill:#353535;fill-opacity:1"/>
</svg>
